X: 14251
T: Allan Water
%R: air, reel
B: James Oswald "The Caledonian Pocket Companion" v.1 b.4 p.25 #1
S: https://ia800501.us.archive.org/18/items/caledonianpocket01rugg/caledonianpocket01rugg_bw.pdf
Z: 2020 John Chambers <jc:trillian.mit.edu>
N: This tune has no repeat signs, but each strain has 2 endings, so modern repeat signs have been added.
M: C
L: 1/8
K: G
|: "_Slow"\
G3A B2(ge) | (dB)(AG) TA2(GE) | G3A (BAB)d |[1 eBdA {GA}B2g2 :|\
[2 e(d/B/ d)B/A/ {A}B2 g>a |: (ba)(ge) (df)(ba) | (ge)(dB) TA2(GE) |
g>age (de)(ge) | dBdA B2(g>a) | (ba)(ge) (dB)(ba) | (ge)(dB) A2(ge) |\
.d(BAG) (DE)(GA) |[1 TB3A B2(g>a) :|[2 TB3A B2g2 |]
|:\
GDGA B2 (g/f/e/d/) | e(d/B/) g/(f/d/B/) TA2 (GE) | GD GA B(A/G/) AB |\
[1 (gf)(ed) B2g2 :|[2 (gf)(ed) B2(g>a) |]
|:\
(b/a/g/b/) (a/g/f/g/) (dB)(ba) | (g/a/b/a/ g/e/d/B) TA2(GE) |\
g(b/a/) gd egde | (G>A) (TA3/G//A//) {A}B2(g>a) |
(b>a) (b/a/g/e/) (d/B/d/e/) g>a | (b/a/g/e/) (d/e/g/B/) TA2 (g/a/g/e/) |\
(d/e/d/B/) (d/B/A/G/) (DE)(GA) |[1 TB3A {A}B2(g>a) :|[2 TB3A {A}B2g2 |]


